X:302
T:Tripping Up The Stairs
R:jig
M:6/8
L:1/8
K:Dmaj
|:FAA GBB|FAd fed|cBc ABc|dfe dAG|
FAA GBB|FAd fed|c2c ABc|dfe d2A:|
dBB fBB|dBB fed|cAA eAA|efe edc|
dBB fBB|fgf fed|cBc ABc|dfe d3:|

